src/images/icons/phone-gray.svg

<svg width="18" height="18" viewBox="0 0 18 18" fill="none" xmlns="http://www.w3.org/2000/svg">
<g id="Phone">
<path id="Union" fill-rule="evenodd" clip-rule="evenodd" d="M4.05365 1.49986C4.084 1.49991 4.11451 1.49996 4.14518 1.49996C4.17105 1.49996 4.19677 1.49992 4.22233 1.49989C4.56182 1.49943 4.8735 1.49901 5.15838 1.58073C5.67679 1.72945 6.11733 2.07341 6.38734 2.54027C6.53571 2.79682 6.6109 3.0993 6.69279 3.42877C6.69896 3.45357 6.70516 3.47853 6.71144 3.50363L7.15335 5.2713C7.16052 5.29996 7.16769 5.32845 7.17482 5.3568C7.27144 5.74065 7.36094 6.09619 7.32853 6.45189C7.3002 6.76286 7.20233 7.06349 7.04215 7.33154C6.85893 7.63813 6.57727 7.87284 6.27319 8.12624C6.25073 8.14495 6.22816 8.16376 6.20549 8.18271L4.69918 9.44203C5.62985 11.0722 6.92767 12.37 8.55786 13.3007L9.81719 11.7944C9.83614 11.7717 9.85495 11.7492 9.87366 11.7267C10.1271 11.4226 10.3618 11.141 10.6684 10.9577C10.9364 10.7976 11.237 10.6997 11.548 10.6714C11.9037 10.639 12.2592 10.7284 12.6431 10.8251C12.6714 10.8322 12.6999 10.8394 12.7286 10.8465L14.4963 11.2885C14.5214 11.2947 14.5463 11.3009 14.5711 11.3071C14.9006 11.389 15.2031 11.4642 15.4596 11.6126C15.9265 11.8826 16.2704 12.3231 16.4192 12.8415C16.5009 13.1264 16.5005 13.4381 16.5 13.7776C16.5 13.8031 16.4999 13.8288 16.4999 13.8547C16.4999 13.8854 16.5 13.9159 16.5 13.9462C16.5007 14.3586 16.5014 14.7412 16.3726 15.0924C16.1463 15.7093 15.5765 16.2263 14.9406 16.3915C14.579 16.4855 14.2296 16.4508 13.86 16.4142C13.835 16.4117 13.8098 16.4092 13.7845 16.4067C11.7849 16.2116 9.98025 15.7116 8.40511 14.9201C6.06348 13.7436 4.25634 11.9364 3.07977 9.59478C2.28834 8.01964 1.78828 6.21504 1.59317 4.21535C1.59071 4.1901 1.58822 4.16494 1.58573 4.13988C1.54908 3.77032 1.51442 3.42085 1.60836 3.05934C1.77361 2.42338 2.29055 1.85356 2.90746 1.62733C3.25871 1.49852 3.6413 1.49916 4.05365 1.49986ZM9.95046 13.9736C11.1334 14.4513 12.4624 14.7706 13.9302 14.9138C14.4197 14.9616 14.491 14.9585 14.5633 14.9397C14.723 14.8983 14.9075 14.7309 14.9643 14.576C14.989 14.5085 14.9999 14.4169 14.9999 13.8547C14.9999 13.3894 14.9928 13.3092 14.9773 13.2551C14.9357 13.11 14.8394 12.9866 14.7086 12.911C14.66 12.8829 14.5839 12.8565 14.1325 12.7437L12.3648 12.3018C11.8409 12.1708 11.7523 12.159 11.6841 12.1652C11.597 12.1731 11.5129 12.2005 11.4378 12.2454C11.379 12.2805 11.3144 12.3422 10.968 12.7565L9.95046 13.9736ZM4.02629 8.04944L5.24338 7.0319C5.65768 6.68554 5.7194 6.62089 5.75453 6.56209C5.79938 6.48704 5.82679 6.40286 5.83472 6.31579C5.84093 6.24758 5.82911 6.15899 5.69814 5.6351L5.25622 3.86744C5.14335 3.41597 5.11703 3.33994 5.08886 3.29125C5.01326 3.16053 4.88991 3.06422 4.74475 3.02258C4.69068 3.00706 4.61054 2.99996 4.14518 2.99996C3.58295 2.99996 3.49137 3.01088 3.4239 3.03562C3.26903 3.09241 3.10163 3.27694 3.06015 3.43659C3.04136 3.50888 3.03833 3.58018 3.08609 4.0697C3.2293 5.53753 3.54858 6.86647 4.02629 8.04944Z" fill="#8FA4B3"/>
</g>
</svg>

<svg width="18" height="18" fill="none" xmlns="http://www.w3.org/2000/svg"><path fill-rule="evenodd" clip-rule="evenodd" d="M4.054 1.5h.168c.34 0 .651-.001.936.08.519.15.96.493 1.23.96.148.257.223.56.305.889l.018.075.442 1.767.022.086c.096.384.186.74.154 1.095a2.083 2.083 0 0 1-.287.88c-.183.306-.465.54-.769.794l-.068.057L4.7 9.442a10.22 10.22 0 0 0 3.859 3.859l1.26-1.507.056-.067c.253-.304.488-.586.794-.77.268-.16.569-.257.88-.286.356-.032.711.057 1.095.154l.086.022 1.767.442.075.018c.33.082.632.157.889.306.466.27.81.71.96 1.229.08.284.08.596.08.936v.168c0 .413.001.795-.127 1.146a2.158 2.158 0 0 1-1.432 1.3c-.362.093-.711.059-1.081.022l-.075-.007c-2-.195-3.805-.695-5.38-1.487A11.783 11.783 0 0 1 3.08 9.595c-.792-1.575-1.292-3.38-1.487-5.38a39.53 39.53 0 0 0-.007-.075c-.037-.37-.072-.72.022-1.08a2.158 2.158 0 0 1 1.3-1.433c.35-.128.733-.128 1.146-.127ZM9.95 13.974c1.183.477 2.512.797 3.98.94.49.048.561.045.633.026a.666.666 0 0 0 .401-.364c.025-.068.036-.16.036-.721 0-.466-.007-.546-.023-.6a.583.583 0 0 0-.268-.344c-.049-.028-.125-.054-.576-.167l-1.768-.442c-.524-.131-.613-.143-.68-.137a.582.582 0 0 0-.247.08c-.059.036-.124.097-.47.512L9.95 13.974ZM4.026 8.049l1.217-1.017c.415-.346.476-.411.512-.47a.583.583 0 0 0 .08-.246c.006-.068-.006-.157-.137-.68l-.442-1.769c-.113-.451-.139-.527-.167-.576a.583.583 0 0 0-.344-.268C4.69 3.007 4.61 3 4.145 3c-.562 0-.654.01-.721.036a.667.667 0 0 0-.364.4c-.019.073-.022.144.026.634.143 1.468.463 2.796.94 3.98Z" fill="#8FA4B3"/></svg>
